src/main/resources/icons/SeleniumSharedIcons/icons/gutter/link.svg

<svg width="12" height="12" viewBox="0 0 12 12" fill="none" xmlns="http://www.w3.org/2000/svg">
<path fill-rule="evenodd" clip-rule="evenodd" d="M1.95696 5.42242L3.1121 4.26728L3.92071 5.07589L2.76556 6.23104C1.93619 7.0604 1.93619 8.40507 2.76556 9.23444C3.59493 10.0638 4.93959 10.0638 5.76896 9.23444L6.92411 8.07929L7.73272 8.8879L6.57758 10.043C5.30163 11.319 3.23291 11.319 1.95696 10.043C0.681013 8.76709 0.681013 6.69837 1.95696 5.42242ZM9.23442 5.76897L8.07926 6.92414L8.88787 7.73275L10.043 6.57758C11.319 5.30163 11.319 3.23291 10.043 1.95696C8.76709 0.681013 6.69837 0.681013 5.42242 1.95696L4.26725 3.11213L5.07586 3.92074L6.23102 2.76557C7.06039 1.93621 8.40506 1.93621 9.23442 2.76557C10.0638 3.59494 10.0638 4.93961 9.23442 5.76897ZM7.12853 3.97578L3.8941 7.21021L4.87598 8.19209L8.11041 4.95766L7.12853 3.97578Z" fill="#6E6E6E"/>
</svg>

<svg width="12" height="12" viewBox="0 0 12 12" fill="none" xmlns="http://www.w3.org/2000/svg"><rect id="frame" width="12" height="12" fill="none"/><path fill-rule="evenodd" clip-rule="evenodd" d="M1.957 5.422l1.155-1.155.809.809L2.766 6.23a2.124 2.124 0 1 0 3.003 3.003L6.924 8.08l.809.809-1.155 1.155a3.267 3.267 0 1 1-4.621-4.62zm7.277.347L8.08 6.924l.809.809 1.155-1.155a3.267 3.267 0 1 0-4.62-4.621L4.266 3.112l.809.809L6.23 2.766a2.124 2.124 0 0 1 3.003 3.003zM7.13 3.976L3.894 7.21l.982.982L8.11 4.958l-.981-.982z" fill="#6E6E6E"/></svg>
